X: 3
T: Turkey In The Straw
R: reel
M: 4/4
L: 1/8
K: Gmaj
dB-Bc BAFG | ABAF ABde | fefg afde | fe-ed egfe |dB-Bc BAFG | ABAF ABde | fa-ab afde | fdec d2 ||fa-ab afde | faab agfe | fabc' d'c'ba | babc' d'2 bc' |d'c'd'b ad'ba | faed B2 de | faed BAFG | Ad-de d2 |]GE-EF EDB,C | DEDB, DEGA | BABc dBGA | BA-AG AcBA |GE-EF EDB,C | DEDB, DEGA | Bd-de dBGA | BGAF G2 !!Bd-de dBGA | Bdde dcBA | Bdef gfed | edef g2 ef |gfge dged | BdAG E2 GA | BdAG EDB,C | DG-GA G2 |]


Tune 2638	Setting 2638

